X:1
T:Kveldsang paa jorden
T:Kveldsang paa fjorden
T:Baard Heradstveit
C:Baard Heradstveit
%%score [ 1 2 3 4 ]
L:1/8
Q:1/4=72
M:3/4
K:A
V:1 treble-8 nm="T1"
V:2 treble-8 nm="T2"
V:3 bass nm="B1"
V:4 bass nm="B2"
V:1
!p!"^Andante" E E | c4 c e | B4!<(! F F!<)! | d4 d f | (e2 d2)!>(! c A | G2 A2 B2!>)! | d2 c2 B2 | %7
w: 1.Kom og|gyng o- ver|fjord nu naar|kveld- klok- kers|kor _ nyn- ner|tan- ken til|fjer- nes- te|
w: 2.Mil- de|sol med din|fred, o, hvor|lyst er dit|sted _ naar du|da- ler og|hvis- ker god|
 A4!<(! E E!<)! | c4 c e | B4!<(! F F!<)! | d4 d f | (e2 d2)!>(! c A | G2 A2!>)! B2 | B2 F2 G2 | %14
w: kyst! Som nu|sol syn- ker|ned, fin- der|sin- det et|sted _ hvor alt|smi- ler og|skin- ner saa|
w: nat! Og du|straa- ler paa|sky, som din|glans just var|ny, _ for du|blev slik dig|All- far har|
 !fermata!A4 ||!pp! A A | A4 B B |!<(! c4!<)! d a |!f! !tenuto!a2 !tenuto!g2 !tenuto!f2 | %19
w: lyst.|Læg din|baat ut fra|strand, hør nu|klin- ger de|
w: skapt.|Naar saa|alt nu blir|tyst, ror de|tan- ker til|
!>(! f2 e2!>)! e e | d2 F2 d d | c2 A2"^rit." A G | G2 G2 B2 | !fermata!A4 |] %24
w: to- ner! Sæt saa|stæv- net dit det|vin- ker, ut mot|længs- ler- nes|land!|
w: hvi- le der du|vug- ger hver som|læn- ges landt mot|sol- kys- tens|pragt.|
V:2
!p! E E | A4 A c | G4!<(! F F!<)! | B4 B B | B4!>(! A A | E2 A2 F2!>)! | B2 A2 G2 | %7
w: 1.Kom og|gyng o- ver|fjord nu naar|kveld- klok- kers|kor nyn- ner|tan- ken til|fjer- nes- te|
w: 2.Mil- de|sol med din|fred, o, hvor|lyst er dit|sted naar du|da- ler og|hvis- ker god|
 A4!<(! E E!<)! | A4 A c | G4!<(! F F!<)! | B4 B B | B4!>(! E E | G2 F2!>)! F2 | G2 d2 d2 | %14
w: kyst! Som nu|sol syn- ker|ned, fin- der|sin- det et|sted hvor alt|smi- ler og|skin- ner saa|
w: nat! Og du|straa- ler paa|sky, som din|glans just var|ny, for du|blev slik dig|All- far har|
 !fermata!c4 ||!pp! E E | (=F2 A2) E E |!<(! (=G2 E2)!<)! D d | %18
w: lyst.|Læg din|baat _ ut fra|strand, _ hør nu|
w: skapt.|Naar saa|alt _ nu blir|tyst, _ ror de|
!f! !tenuto!^d2 !tenuto!=d2 !tenuto!d2 |!>(! c2 c2!>)! d c | B2 F2 B _B | A2 A2"^rit." F F | %22
w: klin- ger de|to- ner! Sæt saa|stæv- net dit det|vin- ker, ut mot|
w: tan- ker til|hvi- le der du|vug- ger hver som|læn- ges landt mot|
 E2 E2 G2 | !fermata!A4 |] %24
w: længs- ler- nes|land!|
w: sol- kys- tens|pragt.|
V:3
!p! E, E, | E,4 E, E, | E,4!<(! D, D,!<)! | (F,2 B,2) G, G, | G,4!>(! E, C, | E,2 E,2 D,2!>)! | %6
w: 1.Kom og|gyng o- ver|fjord nu naar|kveld- * klok- kers|kor nyn- ner|tan- ken til|
w: 2.Mil- de|sol med din|fred, o, hvor|lyst _ er dit|sted naar du|da- ler og|
 F,2 E,2 E,2 | C,4!<(! E, E,!<)! | E,4 E, E, | E,4!<(! D, D,!<)! | (F,2 B,2) G, G, | %11
w: fjer- nes- te|kyst! Som nu|sol syn- ker|ned, fin- der|sin- * det et|
w: hvis- ker god|nat! Og du|straa- ler paa|sky, som din|glans _ just var|
 G,4!>(! E, E, | E,2 F,2!>)! F,2 | E,2 F,2 E,2 | !fermata!E,4 ||!pp! C, C, | (D,2 =F,2) E, E, | %17
w: sted hvor alt|smi- ler og|skin- ner saa|lyst.|Læg din|baat _ ut fra|
w: ny, for du|blev slik dig|All- far har|skapt.|Naar saa|alt _ nu blir|
!<(! E,4!<)! ^F, A, |!f! !tenuto!B,2 !tenuto!B,2 !tenuto!B,2 |!>(! A,2 A,2!>)! E, E, | %20
w: strand, hør nu|klin- ger de|to- ner! Sæt saa|
w: tyst, ror de|tan- ker til|hvi- le der du|
 E,2 D,2 E, E, | E,2 F,2"^rit." F, F, | E,2 E,2 D,2 | !fermata!C,4 |] %24
w: stæv- net dit det|vin- ker, ut mot|længs- ler- nes|land!|
w: vug- ger hver som|læn- ges landt mot|sol- kys- tens|pragt.|
V:4
!p! E, E, | (A,,2 E,,2) A,, A,, | (E,2 E,,2)!<(! D, D,!<)! | (B,,2 F,,2) B,, B,, | %4
w: 1.Kom og|gyng _ o- ver|fjord * nu naar|kveld- * klok- kers|
w: 2.Mil- de|sol _ med din|fred, * o, hvor|lyst _ er dit|
 (E,2 E,,2)!>(! A,, A,, | B,,2 C,2 D,2!>)! | B,,2 E,2 E,,2 | A,,4!<(! E, E,!<)! | %8
w: kor _ nyn- ner|tan- ken til|fjer- nes- te|kyst! Som nu|
w: sted _ naar du|da- ler og|hvis- ker god|nat! Og du|
 (A,,2 E,,2) A,, A,, | (E,2 E,,2)!<(! D, D,!<)! | (B,,2 F,,2) B,, B,, | (E,2 E,,2)!>(! A,, A,, | %12
w: sol _ syn- ker|ned, _ fin- der|sin- * det et|sted _ hvor alt|
w: straa- * ler paa|sky, _ som din|glans _ just var|ny, _ for du|
 C,2 F,2!>)! ^D,2 | E,2 B,,2 E,,2 | !fermata!A,,4 ||!pp! A,, A,, | A,,4 G,, G,, | %17
w: smi- ler og|skin- ner saa|lyst.|Læg din|baat ut fra|
w: blev slik dig|All- far har|skapt.|Naar saa|alt nu blir|
!<(! =G,,4!<)! F,, F, |!f! !tenuto!=F,2 !tenuto!E,2 !tenuto!E,,2 |!>(! A,,2 A,,2!>)! A,, A,, | %20
w: strand, hør nu|klin- ger de|to- ner! Sæt saa|
w: tyst, ror de|tan- ker til|hvi- le der du|
 B,,2 B,,2 G,, G,, | A,,2 D,2"^rit." ^D, D, | E,2 E,,2 E,,2 | !fermata!A,,4 |] %24
w: stæv- net dit det|vin- ker, ut mot|længs- ler- nes|land!|
w: vug- ger hver som|læn- ges landt mot|sol- kys- tens|pragt.|

